!! Isochronous pitch passage.
!! Treble-line.
!! From Mahler, Das Lied von der Erde, Der Einsame in Herbst, Rehearsal Marking "20"
!! First violin
!! 3/2 meter
**kern	**metpos
*M3/2	*M3/2
*tb8	*tb8
=1	=1
8aa	1
8bb	4
8aa	3
8gg	4
8ff	2
8ee	4
8dd	3
8ee	4
8ff	2
8gg	4
8aa	3
8bbn	4
=2	=2
8ccc#	1
8ddd	4
8eee	3
8fff	4
8ggg	2
8fff	4
8eee	3
8ddd	4
8eee	2
8ddd	4
8cccn	3
8bb-	4
=3	=3
8aan	1
8bbn	4
8ccc#	3
8ddd	4
8eee	2
8ddd	4
8cccn	3
8bb-	4
8aa	2
8gg	4
8ff	3
8ee	4
=4	=4
8aa	1
8bbn	4
8ccc#	3
8ddd	4
8ccc#	2
8bb	4
8aa	3
8gg	4
8aa	2
8gg	4
8ff	3
8ee	4
=5	=5
8dd	1
8ee	4
8ff	3
8dd	4
8cc	2
8dd	4
8ee	3
8dd	4
8cc	2
8dd	4
8cc	3
8b-	4
=6	=6
8a	1
8b-	4
8cc	3
8dd	4
8cc	2
8b-	4
8a	3
8b-	4
8cc	2
8b-	4
8a	3
8g	4
=7	=7
8a	1
8f	4
8e	3
8d	4
8c	2
8e	4
8d	3
8c	4
8B-	2
8d	4
8c	3
8B-	4
=8	=8
8A	1
8B-	4
8A	3
8G	4
8A	2
8B-	4
8c	3
8B-	4
8A	2
8B-	4
8A	3
8G	4
=9	=9
8A	1
8B-	4
8c	3
8B-	4
8A	2
8G	4
8A	3
8c	4
8B-	2
8A	4
8G	3
8A	4
=10	=10
*-	*-
